X:1
T:Juley
M:4/4
L:1/4
K:F
 A| c B A3/2 c/2| B A z2| c2- A2| c2- A2| d c A3/2 F/2| A F z2| F3/2 F/2 F A|\
 G/2G/2 C/2C/2 F||
